src/assets/tokens/token_sOHM.svg

<svg width="100" height="100" viewBox="0 0 100 100" fill="none" xmlns="http://www.w3.org/2000/svg">
<path fill-rule="evenodd" clip-rule="evenodd" d="M49.9453 93.7637C74.0246 93.7637 93.5448 74.2435 93.5448 50.1641C93.5448 45.1066 92.6837 40.2501 91.1 35.7334V21.5178C96.7113 29.5997 100 39.4158 100 50C100 77.6142 77.6142 100 50 100C22.3858 100 0 77.6142 0 50C0 39.353 3.3278 29.4833 9 21.3743V35.1494C7.28293 39.8305 6.3457 44.8879 6.3457 50.1641C6.3457 74.2435 25.8659 93.7637 49.9453 93.7637Z" fill="url(#paint0_linear)"/>
<path d="M11.1001 50C11.1001 28.5161 28.5162 11.1 50.0001 11.1C71.484 11.1 88.9001 28.5161 88.9001 50C88.9001 71.4839 71.484 88.9 50.0001 88.9C28.5162 88.9 11.1001 71.4839 11.1001 50Z" fill="#708B96"/>
<path fill-rule="evenodd" clip-rule="evenodd" d="M53.7345 65.4747C53.7345 65.4747 53.7345 65.4747 53.7345 65.4747V67.1938H67.1161V62.3702H60.5078C64.4837 59.3579 67.0381 54.6753 67.0381 49.4165C67.0381 40.3288 59.4099 32.9618 49.9999 32.9618C40.59 32.9618 32.9617 40.3288 32.9617 49.4165C32.9617 54.6753 35.5161 59.3579 39.492 62.3702H32.884V67.1938H46.2656V65.4747L46.2657 60.7106C41.3899 59.1759 37.8633 54.717 37.8633 49.4554C37.8633 42.9243 43.2971 37.6298 50.0001 37.6298C56.703 37.6298 62.1369 42.9243 62.1369 49.4554C62.1369 54.717 58.6102 59.176 53.7345 60.7107V65.4747Z" fill="white"/>
<defs>
<linearGradient id="paint0_linear" x1="-83.5339" y1="50" x2="189.059" y2="50" gradientUnits="userSpaceOnUse">
<stop stop-color="#708B96"/>
<stop offset="1" stop-color="#F7FBE7"/>
</linearGradient>
</defs>
</svg>

<svg width="100" height="100" viewBox="0 0 100 100" fill="none" xmlns="http://www.w3.org/2000/svg">
  <path fill-rule="evenodd" clip-rule="evenodd" d="M49.945 93.764c24.08 0 43.6-19.52 43.6-43.6 0-5.057-.861-9.914-2.445-14.43V21.517A49.77 49.77 0 0 1 100 50c0 27.614-22.386 50-50 50S0 77.614 0 50a49.77 49.77 0 0 1 9-28.626V35.15a43.514 43.514 0 0 0-2.654 15.015c0 24.08 19.52 43.6 43.6 43.6Z" fill="url(#a)"/>
  <path d="M11.1 50c0-21.484 17.416-38.9 38.9-38.9 21.484 0 38.9 17.416 38.9 38.9 0 21.484-17.416 38.9-38.9 38.9-21.484 0-38.9-17.416-38.9-38.9Z" fill="#708B96"/>
  <path fill-rule="evenodd" clip-rule="evenodd" d="M53.734 65.475v1.719h13.382V62.37h-6.608c3.976-3.012 6.53-7.695 6.53-12.953 0-9.088-7.628-16.455-17.038-16.455s-17.038 7.367-17.038 16.454c0 5.26 2.554 9.942 6.53 12.954h-6.608v4.824h13.382V60.71c-4.876-1.535-8.403-5.994-8.403-11.256 0-6.53 5.434-11.825 12.137-11.825s12.137 5.294 12.137 11.825c0 5.262-3.527 9.721-8.403 11.256v4.764Z" fill="#fff"/>
  <defs>
    <linearGradient id="a" x1="-83.534" y1="50" x2="189.059" y2="50" gradientUnits="userSpaceOnUse">
      <stop stop-color="#708B96"/>
      <stop offset="1" stop-color="#F7FBE7"/>
    </linearGradient>
  </defs>
</svg>
